X: 10372
T: Donal O'Connor's
R: slide
M: 12/8
K: Gmajor
|:A|B2 d cBA G2 E D2 G|EFG A2 B cdc B2 A|
B2 d cBA G2 E D2 G|EFG AFD G3 G2:|
|:E|D2 B BAB d2 B B3|D2 A A2 B c2 A F2 A|
D2 B BAB d2 B B2 G|ABA DFA G3 G2:|

